X:1
T:In the Book Which Thou Art Keeping
T:In the Book Which Thou Art Keeping
T:William James Kirkpatrick
T:Frances Jane (Fanny) Crosby, 1900
T:Public Domain Courtesy of the Cyber Hymnal™
T:Public Domain Courtesy of the Cyber Hymnal™
C:William James Kirkpatrick
Z:Public Domain
Z:Courtesy of the Cyber Hymnal™
%%score ( 1 2 ) ( 3 4 )
L:1/8
Q:1/4=107
M:3/4
K:Ab
V:1 treble 
V:2 treble 
V:3 bass 
V:4 bass 
V:1
 [CE][CA] | [Ec]3 [DB] [Ec][Fd] | [Ec]2 [CA]2 [B,G][CA] | [DB]3 [C=A] [DB][DE] | [Ec]4 [Ec][DB] | %5
w: 1.~In the|book which Thou art|keep- ing, In Thy|Book of Life so|fair, Tell me,|
w: 2.~Light- er|far the dai- ly|tri- als That my|wea- ry heart must|bear, Light- er|
w: 3.~Tho’ I|oft have failed in|du- ty, Yet my|faith still clings to|Thee; When Thou|
w: 4.~Let me|hear Thy lov- ing|Spir- it Soft- ly|whis- per, “All is|well,” That my|
w: 5.~When from|earth my tho’ts are|wing- ing To the|heav’n- ly man- sions|fair, Let me|
 [CA]3 [DG] [EB][EA] | [EG]2 [DF]2 [FB][Fd] | [Ec]3 [EA] [EG][EB] | [EA]4 ||"^Refrain" cd | e4 cd | %11
w: O my Sav- ior,|tell me, Is my|name re- cord- ed|there?|Is it|there? Is it|
w: far my toil and|la- bor, If I|knew my name was|there.|Is it|there? Is it|
w: mak- est up Thy|jew- els, Will my|name re- mem- bered|be?|Is it|there? Is it|
w: name in light is|shin- ing, Where I|soon with Thee shall|dwell.|Yes, ’tis|there, yes, ’tis|
w: feel the sweet as-|sur- ance That my|hum- ble name is|there.|Yes, ’tis|there, yes, ’tis|
 e4 [Ed][Ec] | [EB]3 [Ec] [Ed][Ee] | [Ec]4 cB | A3 [EG] [EB][EA] | [EG]2 [DF]2 Bd | %16
w: there? In Thy|Book of Life so|fair? Tell me,|O my Sav- ior,|tell me Is my|
w: there? In Thy|Book of Life so|fair? Tell me,|O my Sav- ior,|tell me Is my|
w: there? In Thy|Book of Life so|fair? Tell me,|O my Sav- ior,|tell me Is my|
w: there, In Thy|Book of Life so|fair; I be-|lieve, O bless- èd|Sav- ior, That my|
w: there, In Thy|Book of Life so|fair; I be-|lieve, O bless- èd|Sav- ior, That my|
 c3 [EA] [EG][EB] | [EA]4 |] %18
w: name re- cord- ed|there?|
w: name re- cord- ed|there?|
w: name re- cord- ed|there?|
w: name is writ- ten|there.|
w: name is writ- ten|there.|
V:2
 x2 | x6 | x6 | x6 | x6 | x6 | x6 | x6 | x4 || x2 | (EA A2) x2 | (EA A2) x2 | x6 | x6 | (EE E) x3 | %15
 x6 | (EE E) x3 | x4 |] %18
V:3
 [A,,A,][A,,A,] | [A,,A,]3 [A,,A,] [A,,A,][A,,A,] | [A,,A,]2 [A,,E,]2 E,[E,A,] | %3
 [E,G,]3 [E,^F,] [E,G,][E,G,] | [A,,A,]4 [A,,A,][A,,E,] | [A,,E,]3 [B,,E,] [C,E,][C,A,] | %6
 [D,A,]2 [D,A,]2 [D,A,][D,A,] | [E,A,]3 [E,C] [E,B,][E,D] | [A,,C]4 || A,B, | C2 A,2 A,B, | %11
 C4 B,A, | G,3 [E,A,] [E,B,][E,G,] | A,4 ED | C3 [B,,B,] [C,A,][C,A,] | [C,G,]2 [C,A,]2 DB, | %16
 A,3 [E,C] [E,B,][E,D] | [A,,C]4 |] %18
V:4
 x2 | x6 | x4 E, x | x6 | x6 | x6 | x6 | x6 | x4 || x2 | A,A, x4 | (A,A, A,2) x2 | (E,E, E,) x3 | %13
 A,4 x2 | (A,,A,, A,,) x3 | x6 | (E,E, E,) x3 | x4 |] %18

